public/img/logo-woazoo.svg

<svg xmlns="http://www.w3.org/2000/svg" viewBox="0 0 244.85 72.19"><defs><linearGradient id="a" x1="80.91" y1="28.55" x2="108.71" y2="28.55" gradientUnits="userSpaceOnUse"><stop offset="0" stop-color="#007f72"/><stop offset=".08" stop-color="#28915c"/><stop offset=".2" stop-color="#63ab3b"/><stop offset=".29" stop-color="#88bb26"/><stop offset=".34" stop-color="#96c11e"/><stop offset=".39" stop-color="#9dc318"/><stop offset=".64" stop-color="#b9cd00"/><stop offset=".69" stop-color="#bdcf0d"/><stop offset=".78" stop-color="#c6d426"/><stop offset=".87" stop-color="#cbd635"/><stop offset=".95" stop-color="#cdd73a"/></linearGradient><linearGradient id="b" y1="35.88" x2="87.76" y2="35.88" gradientUnits="userSpaceOnUse"><stop offset=".03" stop-color="#007f72"/><stop offset=".04" stop-color="#0b846c"/><stop offset=".09" stop-color="#369754"/><stop offset=".14" stop-color="#58a641"/><stop offset=".19" stop-color="#73b231"/><stop offset=".24" stop-color="#87ba27"/><stop offset=".29" stop-color="#92bf20"/><stop offset=".34" stop-color="#96c11e"/><stop offset=".52" stop-color="#adc90a"/><stop offset=".65" stop-color="#b9cd00"/><stop offset=".84" stop-color="#c7d429"/><stop offset=".95" stop-color="#cdd73a"/></linearGradient></defs><g data-name="Calque 2"><g data-name="Calque 1"><path d="M90.34 57.09s7.2-16.62 6.82-18.81a5.84 5.84 0 0 1 .3-1.83c.63-3.52 2.27-12.25-1.54-16.81 0 0 3.38 2.09 3.74 4.44 0 0-.5-6.83-4.77-4.92-4 1.79-7.92-2.07-11.18-3v-.08l7.33.8s-11.91-2.95-9.92-11.1c0 0 7.5-10.56 19-3a16.07 16.07 0 0 0 3 4.71s-2.72-3.49-2-4.38c0 0 8.27 6.59 6.54 15.63a3.37 3.37 0 0 1-.46 1.13 21.67 21.67 0 0 0-1.69 3c-.63 1.43 3.2-4.57 3.2-4.57s-4.4 16.21-8.88 19.73a5.25 5.25 0 0 0-1.69 2.23z" fill-rule="evenodd" fill="url(#a)"/><path d="M82.19 70.65a10.18 10.18 0 0 1-13.7-4.46L62 53.46l-.11-.22-6.46-12.68c-2.51 13.67-6.23 21.1-9.74 25.13a10.19 10.19 0 0 1-18.4.5L20.8 53.46l-.11-.22-7.19-14.1-5.79-11.36-.11-.22-6.49-12.74a10.19 10.19 0 1 1 18.16-9.25l26.18 51.37a10.16 10.16 0 0 1 1.11 4.76c3.89-2.15 7.48-15.85 8.78-21.32l-.64-1.24-5.79-11.36-.11-.22-6.49-12.74a10.19 10.19 0 1 1 18.16-9.25l26.18 51.37a10.19 10.19 0 0 1-4.46 13.71z" fill="url(#b)"/><path d="M96.84 58.44a13.75 13.75 0 1 1 13.75 13.75 13.78 13.78 0 0 1-13.75-13.75zm21 0c0-4.27-2.94-7.36-6.93-7.36s-6.93 3.09-6.93 7.36 2.88 7.35 6.93 7.35 6.88-3.09 6.88-7.35zm37.47-13.33v26.65h-6.82V70a13.57 13.57 0 0 1-7.41 2.19 13.75 13.75 0 1 1 7.41-25.32v-1.76zm-7.09 13.33c0-4.27-2.93-7.36-6.93-7.36s-6.93 3.09-6.93 7.36 2.93 7.35 6.93 7.35 6.93-3.09 6.93-7.35zm36.19-9.86l-13.54 16.79h13.54v6.39h-24.47V68.3l13.54-16.79h-13.54v-6.4h24.47zm2.45 9.86a13.75 13.75 0 1 1 13.75 13.75 13.78 13.78 0 0 1-13.75-13.75zm20.94 0c0-4.27-2.93-7.36-6.92-7.36S194 54.17 194 58.44s2.87 7.35 6.93 7.35 6.87-3.09 6.87-7.35zm9.54 0a13.76 13.76 0 1 1 13.75 13.75 13.79 13.79 0 0 1-13.75-13.75zm20.95 0c0-4.27-2.93-7.36-6.93-7.36s-6.93 3.09-6.93 7.36 2.88 7.35 6.93 7.35 6.93-3.09 6.93-7.35z" fill="#b9cd00"/></g></g></svg>

<svg xmlns="http://www.w3.org/2000/svg" xmlns:xlink="http://www.w3.org/1999/xlink" viewBox="0 0 244.85 72.19"><defs><style>.cls-1{fill-rule:evenodd;fill:url(#Dégradé_sans_nom_24);}.cls-2{fill:url(#Dégradé_sans_nom_3);}.cls-3{fill:#b9cd00;}</style><linearGradient id="Dégradé_sans_nom_24" x1="80.91" y1="28.55" x2="108.71" y2="28.55" gradientUnits="userSpaceOnUse"><stop offset="0" stop-color="#007f72"/><stop offset="0.08" stop-color="#28915c"/><stop offset="0.2" stop-color="#63ab3b"/><stop offset="0.29" stop-color="#88bb26"/><stop offset="0.34" stop-color="#96c11e"/><stop offset="0.39" stop-color="#9dc318"/><stop offset="0.64" stop-color="#b9cd00"/><stop offset="0.69" stop-color="#bdcf0d"/><stop offset="0.78" stop-color="#c6d426"/><stop offset="0.87" stop-color="#cbd635"/><stop offset="0.95" stop-color="#cdd73a"/></linearGradient><linearGradient id="Dégradé_sans_nom_3" y1="35.88" x2="87.76" y2="35.88" gradientUnits="userSpaceOnUse"><stop offset="0.03" stop-color="#007f72"/><stop offset="0.04" stop-color="#0b846c"/><stop offset="0.09" stop-color="#369754"/><stop offset="0.14" stop-color="#58a641"/><stop offset="0.19" stop-color="#73b231"/><stop offset="0.24" stop-color="#87ba27"/><stop offset="0.29" stop-color="#92bf20"/><stop offset="0.34" stop-color="#96c11e"/><stop offset="0.52" stop-color="#adc90a"/><stop offset="0.65" stop-color="#b9cd00"/><stop offset="0.84" stop-color="#c7d429"/><stop offset="0.95" stop-color="#cdd73a"/></linearGradient></defs><title>logo-woazoo</title><g id="Calque_2" data-name="Calque 2"><g id="Calque_1-2" data-name="Calque 1"><path class="cls-1" d="M90.34,57.09s7.2-16.62,6.82-18.81a5.84,5.84,0,0,1,.3-1.83c.63-3.52,2.27-12.25-1.54-16.81,0,0,3.38,2.09,3.74,4.44,0,0-.5-6.83-4.77-4.92-4,1.79-7.92-2.07-11.18-3,0,0,0-.08,0-.08l7.33.8s-11.91-2.95-9.92-11.1c0,0,7.5-10.56,19-3a16.07,16.07,0,0,0,3,4.71s-2.72-3.49-2-4.38c0,0,8.27,6.59,6.54,15.63a3.37,3.37,0,0,1-.46,1.13,21.67,21.67,0,0,0-1.69,3c-.63,1.43,3.2-4.57,3.2-4.57s-4.4,16.21-8.88,19.73a5.25,5.25,0,0,0-1.69,2.23Z"/><path class="cls-2" d="M82.19,70.65a10.18,10.18,0,0,1-13.7-4.46L62,53.46l-.11-.22L55.43,40.56c-2.51,13.67-6.23,21.1-9.74,25.13a10.19,10.19,0,0,1-18.4.5L20.8,53.46l-.11-.22L13.5,39.14,7.71,27.78l-.11-.22L1.11,14.82A10.19,10.19,0,1,1,19.27,5.57L45.45,56.94a10.16,10.16,0,0,1,1.11,4.76c3.89-2.15,7.48-15.85,8.78-21.32l-.64-1.24L48.91,27.78l-.11-.22L42.31,14.82A10.19,10.19,0,1,1,60.47,5.57L86.65,56.94A10.19,10.19,0,0,1,82.19,70.65Z"/><path class="cls-3" d="M96.84,58.44a13.75,13.75,0,1,1,13.75,13.75A13.78,13.78,0,0,1,96.84,58.44Zm21,0c0-4.27-2.94-7.36-6.93-7.36s-6.93,3.09-6.93,7.36,2.88,7.35,6.93,7.35S117.79,62.7,117.79,58.44Z"/><path class="cls-3" d="M155.31,45.11V71.76h-6.82V70a13.57,13.57,0,0,1-7.41,2.19,13.75,13.75,0,1,1,7.41-25.32V45.11Zm-7.09,13.33c0-4.27-2.93-7.36-6.93-7.36s-6.93,3.09-6.93,7.36,2.93,7.35,6.93,7.35S148.22,62.7,148.22,58.44Z"/><path class="cls-3" d="M184.41,48.58,170.87,65.37h13.54v6.39H159.94V68.3l13.54-16.79H159.94v-6.4h24.47Z"/><path class="cls-3" d="M186.86,58.44a13.75,13.75,0,1,1,13.75,13.75A13.78,13.78,0,0,1,186.86,58.44Zm20.94,0c0-4.27-2.93-7.36-6.92-7.36S194,54.17,194,58.44s2.87,7.35,6.93,7.35S207.8,62.7,207.8,58.44Z"/><path class="cls-3" d="M217.34,58.44a13.76,13.76,0,1,1,13.75,13.75A13.79,13.79,0,0,1,217.34,58.44Zm20.95,0c0-4.27-2.93-7.36-6.93-7.36s-6.93,3.09-6.93,7.36,2.88,7.35,6.93,7.35S238.29,62.7,238.29,58.44Z"/></g></g></svg>
